icon-svg/a1-mini.svg

<svg xmlns="http://www.w3.org/2000/svg" fill="#44739e" viewBox="0 0 24 24"><path d="M16.7 9.774a.31.31 0 0 1 .207.077c.03.234.05.458.071.695a13.57 13.57 0 0 0 .554 2.977c.03.1.13.384.307.872a.7.7 0 0 0 .011-.1v-.042c-.15-.412-.236-.656-.262-.747a16.78 16.78 0 0 1-.624-3.666c-.01-.079-.317-.2-.369-.064-.306.8.553 3.829.7 4.265.093.277.186.537.276.779l.006-.005a.35.35 0 0 0 .042-.034c-.087-.236-.177-.489-.268-.759-.129-.383-1-3.433-.7-4.225.003-.005.009-.021.049-.023m1.208 4.807c.157.43.363.992.623 1.7a.6.6 0 0 0 .043-.055c-.268-.728-.478-1.3-.635-1.732a1 1 0 0 1-.031.087m.174 1.381c-.124-.308-.266-.662-.417-1.064l-.016.012-.033.025c.244.65.466 1.173.623 1.581l.049-.037zm.757.815-.226-.616a.7.7 0 0 1-.039.064l.212.578a1.117 1.117 0 0 1 .026.84.8.8 0 0 1-.433.407.905.905 0 0 1-.611-.05 5.17 5.17 0 0 1-.929-.419l-.05.039a5.2 5.2 0 0 0 .96.435 1.38 1.38 0 0 0 .427.089.66.66 0 0 0 .222-.038.847.847 0 0 0 .467-.438 1.182 1.182 0 0 0-.023-.885zm-2.222-7.102c.039.01.079.018.118.024l.077.028.031-.02h.063a.5.5 0 0 0-.156-.049.243.243 0 0 0-.133.017m1.725 7.897c-.123.1-.418.12-1.123-.28l-.051.039q.916.525 1.211.287c.182-.149.091-.5-.14-1.1l-.049.037c.21.55.304.893.152 1.017m.68-11.518L17.811 5.6a.69.69 0 0 0-.564.033l-2.221 1.15a.226.226 0 0 0-.122.2V8.6a.437.437 0 0 0 .279.4l1.377.53a.854.854 0 0 0 .8-.1l1.722-1.216a.466.466 0 0 0 .2-.378v-1.41a.4.4 0 0 0-.26-.372m-3.977.577.467-.236-.012-.009a.153.153 0 0 1-.056-.131.151.151 0 0 1 .078-.118.15.15 0 0 1 .221.113v.02l1.542-.816a.9.9 0 0 1 .288-.046l.544.129V3.411a.114.114 0 0 0-.077-.108l-1.3-.461a.255.255 0 0 0-.206.016l-.793.436a.354.354 0 0 0-.183.313l.01 1.453a.15.15 0 0 1-.03.091l-.275.367V5.8a.153.153 0 0 1-.059.12l-.329.252a.15.15 0 0 1-.15.019l-.479-.2-.176.209.116.14ZM8.732 7.8h.007l.167-.1.313-.227a.125.125 0 0 1 .073-.024.115.115 0 0 1 .057.014.125.125 0 0 1 .069.111v.11l.079.08.149.021a.125.125 0 0 1 .046.231.007.007 0 0 0 0 .007v.006l.282.108a.353.353 0 0 0 .31-.026l1.647-.977.034-.17-.005-.008-.741-.269a.124.124 0 0 1-.082-.124l.059-1.2a.127.127 0 0 1 .064-.1c.5-.278.865-.494.944-.553V3.332a.308.308 0 0 0-.2-.286l-.372-.146a.123.123 0 0 1-.08-.113l-.011-.407v-.007l-.571-.206h-.01l-.343.129-.005.007-.009.251a.126.126 0 0 1-.06.1l-.466.285a.126.126 0 0 1-.13 0 .124.124 0 0 1-.06-.115l.046-.713v-.008L9.622 2h-.006l-.284.158v.006L9.316 3.2a.123.123 0 0 1-.046.1.74.74 0 0 1-.284.143.184.184 0 0 0-.139.2l.018.13a.123.123 0 0 1-.045.113l-.191.157a.3.3 0 0 0-.11.242l.066 2.185a.263.263 0 0 0 .125.215l.085.052a.123.123 0 0 1 .057.08.127.127 0 0 1-.019.1l-.318.46v.296zm-1.856-.824.234.052.814-.428-.011-.449L6.6 5.524l.253-.738 1.582.608L8.4 4.29a.423.423 0 0 1 .081-.258l-1.74-.619-.573.327-.059.773.042.055.127.24L5.9 5.8l-.259.284v.325l.372.087.026.116.357.1-.318.257-.437-.138v.189l.711.35ZM14.006 6l-2.326-.83-.351.2v.006l-.059 1.107 3.516 1.35v-.849a.34.34 0 0 1 .086-.226l-.75-.257a.147.147 0 0 1-.068-.047l-.134-.163a.15.15 0 0 1 0-.192zm-2.989 14.557.672-1.12-1.453-.711-.63 1.12zm4.138-6.687v-.262L9.524 11.16 4.72 14.264v.249l5.715 2.68zm2.832-4.734-.557.393a.975.975 0 0 1-.524.178c.061.031.112.075.118.126.031.237.051.463.072.7a13.5 13.5 0 0 0 .55 2.955c.023.079.092.276.21.6zm-2.475.12-.145 5.305a.373.373 0 0 0 .118.283l.106.1v.163l.483.191.206-.129.272.133a.408.408 0 0 0 .42-.039l.552-.407c-.092-.248-.187-.513-.283-.8-.137-.407-1.017-3.469-.7-4.3a.142.142 0 0 1 .075-.081c-.034-.009-.067-.02-.1-.032zm.979 8.181.365-.365.04.025c.116.074.224.139.323.2l.971-.739c-.063-.164-.136-.346-.217-.547-.121-.3-.26-.645-.407-1.035l-.524.388a.521.521 0 0 1-.542.049l-.213-.1-.2.125-.613-.242V15l-.074-.07a.493.493 0 0 1-.154-.373l.017-.621-4.82 3.393-3.4-1.593-2.019 1.348a.4.4 0 0 0-.036.027l-.052.045a.355.355 0 0 0-.121.267v1.142a.7.7 0 0 0 .381.622l1.475.751a2.1 2.1 0 0 0 .651-.055l.993-.674a.238.238 0 0 1 .311-.023l.462.224a.165.165 0 0 1 .1.245l-.455.75a.484.484 0 0 0-.066.3l.009.078a.351.351 0 0 0 .2.276l1.827.893a.432.432 0 0 0 .453-.045l5.639-4.291q-.12-.069-.237-.144zm-5.43 3.275L9.443 19.9l.745-1.325 1.668.817zm7.67-6.012a.455.455 0 0 0-.282-.441l-.475-.2-.006.23a.8.8 0 0 1-.007.085c.157.431.373 1.019.652 1.778a.59.59 0 0 0 .063-.238zm-3.438-1.734L12.944 12a.352.352 0 0 0-.33.032l-.311.208 2.97 1.291v.175z"/></svg>

<?xml version="1.0" encoding="UTF-8"?>
<svg width="24px" fill="#44739e" height="24px" viewBox="0 0 24 24" version="1.1" xmlns="http://www.w3.org/2000/svg" xmlns:xlink="http://www.w3.org/1999/xlink">
            <path d="m 16.7,9.774 a 0.309,0.309 0 0 1 0.207,0.077 c 0.03,0.234 0.05,0.458 0.071,0.695 a 13.568,13.568 0 0 0 0.554,2.977 c 0.03,0.1 0.13,0.384 0.307,0.872 a 0.665,0.665 0 0 0 0.011,-0.1 V 14.253 C 17.7,13.841 17.614,13.597 17.588,13.506 A 16.783,16.783 0 0 1 16.964,9.84 c -0.01,-0.079 -0.317,-0.2 -0.369,-0.064 -0.306,0.8 0.553,3.829 0.7,4.265 0.093,0.277 0.186,0.537 0.276,0.779 l 0.006,-0.005 a 0.347,0.347 0 0 0 0.042,-0.034 c -0.087,-0.236 -0.177,-0.489 -0.268,-0.759 -0.129,-0.383 -1,-3.433 -0.7,-4.225 C 16.654,9.792 16.66,9.776 16.7,9.774 Z m 1.208,4.807 c 0.157,0.43 0.363,0.992 0.623,1.7 a 0.546,0.546 0 0 0 0.043,-0.055 c -0.268,-0.728 -0.478,-1.3 -0.635,-1.732 a 0.918,0.918 0 0 1 -0.031,0.087 z m 0.174,1.381 C 17.958,15.654 17.816,15.3 17.665,14.898 l -0.016,0.012 -0.033,0.025 c 0.244,0.65 0.466,1.173 0.623,1.581 l 0.049,-0.037 z m 0.757,0.815 -0.226,-0.616 a 0.682,0.682 0 0 1 -0.039,0.064 l 0.212,0.578 a 1.117,1.117 0 0 1 0.026,0.84 A 0.8,0.8 0 0 1 18.379,18.05 0.905,0.905 0 0 1 17.768,18 5.167,5.167 0 0 1 16.839,17.581 l -0.05,0.039 a 5.2,5.2 0 0 0 0.96,0.435 1.382,1.382 0 0 0 0.427,0.089 0.66,0.66 0 0 0 0.222,-0.038 0.847,0.847 0 0 0 0.467,-0.438 1.182,1.182 0 0 0 -0.023,-0.885 z M 16.617,9.675 c 0.039,0.01 0.079,0.018 0.118,0.024 l 0.077,0.028 0.031,-0.02 h 0.063 A 0.5,0.5 0 0 0 16.75,9.658 0.243,0.243 0 0 0 16.617,9.675 Z m 1.725,7.897 c -0.123,0.1 -0.418,0.12 -1.123,-0.28 l -0.051,0.039 q 0.916,0.525 1.211,0.287 c 0.182,-0.149 0.091,-0.5 -0.14,-1.1 l -0.049,0.037 c 0.21,0.55 0.304,0.893 0.152,1.017 z M 19.022,6.054 17.811,5.6 a 0.691,0.691 0 0 0 -0.564,0.033 l -2.221,1.15 a 0.226,0.226 0 0 0 -0.122,0.2 V 8.6 A 0.437,0.437 0 0 0 15.183,9 l 1.377,0.53 a 0.854,0.854 0 0 0 0.8,-0.1 l 1.722,-1.216 a 0.466,0.466 0 0 0 0.2,-0.378 V 6.426 A 0.4,0.4 0 0 0 19.022,6.054 Z M 15.045,6.631 15.512,6.395 15.5,6.386 A 0.153,0.153 0 0 1 15.444,6.255 0.151,0.151 0 0 1 15.522,6.137 0.15,0.15 0 0 1 15.743,6.25 v 0.02 l 1.542,-0.816 v 0 a 0.9,0.9 0 0 1 0.288,-0.046 v 0 l 0.544,0.129 V 3.411 A 0.114,0.114 0 0 0 18.04,3.303 l -1.3,-0.461 a 0.255,0.255 0 0 0 -0.206,0.016 l -0.793,0.436 a 0.354,0.354 0 0 0 -0.183,0.313 l 0.01,1.453 a 0.151,0.151 0 0 1 -0.03,0.091 L 15.263,5.518 V 5.8 a 0.153,0.153 0 0 1 -0.059,0.12 l -0.329,0.252 a 0.15,0.15 0 0 1 -0.15,0.019 L 14.246,5.991 14.07,6.2 14.186,6.34 Z M 8.732,7.8 H 8.739 L 8.906,7.7 9.219,7.473 A 0.125,0.125 0 0 1 9.292,7.449 0.115,0.115 0 0 1 9.349,7.463 0.125,0.125 0 0 1 9.418,7.574 v 0.11 0 l 0.079,0.08 v 0 l 0.149,0.021 a 0.125,0.125 0 0 1 0.046,0.231 0.007,0.007 0 0 0 0,0.007 v 0.006 l 0.282,0.108 a 0.353,0.353 0 0 0 0.31,-0.026 l 1.647,-0.977 v 0 L 11.965,6.964 11.96,6.956 11.219,6.687 A 0.124,0.124 0 0 1 11.137,6.563 l 0.059,-1.2 a 0.127,0.127 0 0 1 0.064,-0.1 C 11.76,4.985 12.125,4.769 12.204,4.71 V 3.332 a 0.308,0.308 0 0 0 -0.2,-0.286 L 11.632,2.9 A 0.123,0.123 0 0 1 11.552,2.787 L 11.541,2.38 V 2.373 L 10.97,2.167 h -0.01 l -0.343,0.129 -0.005,0.007 -0.009,0.251 a 0.126,0.126 0 0 1 -0.06,0.1 l -0.466,0.285 a 0.126,0.126 0 0 1 -0.13,0 0.124,0.124 0 0 1 -0.06,-0.115 L 9.933,2.111 V 2.103 L 9.622,2 H 9.616 L 9.332,2.158 V 2.164 L 9.316,3.2 A 0.123,0.123 0 0 1 9.27,3.3 0.74,0.74 0 0 1 8.986,3.443 0.184,0.184 0 0 0 8.847,3.643 l 0.018,0.13 A 0.123,0.123 0 0 1 8.82,3.886 L 8.629,4.043 A 0.3,0.3 0 0 0 8.519,4.285 L 8.585,6.47 A 0.263,0.263 0 0 0 8.71,6.685 l 0.085,0.052 a 0.123,0.123 0 0 1 0.057,0.08 0.127,0.127 0 0 1 -0.019,0.1 l -0.318,0.46 v 0.29 0.006 z M 6.876,6.976 7.11,7.028 7.924,6.6 7.913,6.151 6.6,5.524 6.853,4.786 8.435,5.394 8.4,4.29 A 0.423,0.423 0 0 1 8.481,4.032 L 6.741,3.413 6.168,3.74 6.109,4.513 6.151,4.568 6.278,4.808 5.9,5.8 5.641,6.084 V 6.409 L 6.013,6.496 6.039,6.612 6.396,6.712 6.078,6.969 5.641,6.831 V 7.02 L 6.352,7.37 Z M 14.006,6 11.68,5.17 11.329,5.37 v 0.006 l -0.059,1.107 3.516,1.35 V 6.984 A 0.341,0.341 0 0 1 14.872,6.758 L 14.122,6.501 A 0.147,0.147 0 0 1 14.054,6.454 L 13.92,6.291 a 0.15,0.15 0 0 1 0,-0.192 z m -2.989,14.557 0.672,-1.12 -1.453,-0.711 -0.63,1.12 z M 15.155,13.87 V 13.608 L 9.524,11.16 4.72,14.264 v 0.249 l 5.715,2.68 z M 17.987,9.136 17.43,9.529 a 0.975,0.975 0 0 1 -0.524,0.178 c 0.061,0.031 0.112,0.075 0.118,0.126 0.031,0.237 0.051,0.463 0.072,0.7 a 13.486,13.486 0 0 0 0.55,2.955 c 0.023,0.079 0.092,0.276 0.21,0.6 z m -2.475,0.12 -0.145,5.305 a 0.373,0.373 0 0 0 0.118,0.283 l 0.106,0.1 v 0.163 l 0.483,0.191 0.206,-0.129 0.272,0.133 a 0.408,0.408 0 0 0 0.42,-0.039 l 0.552,-0.407 c -0.092,-0.248 -0.187,-0.513 -0.283,-0.8 -0.137,-0.407 -1.017,-3.469 -0.7,-4.3 a 0.142,0.142 0 0 1 0.075,-0.081 c -0.034,-0.009 -0.067,-0.02 -0.1,-0.032 z m 0.979,8.181 0.365,-0.365 0.04,0.025 c 0.116,0.074 0.224,0.139 0.323,0.2 l 0.971,-0.739 c -0.063,-0.164 -0.136,-0.346 -0.217,-0.547 -0.121,-0.3 -0.26,-0.645 -0.407,-1.035 l -0.524,0.388 A 0.521,0.521 0 0 1 16.5,15.413 l -0.213,-0.1 -0.2,0.125 -0.613,-0.242 V 15 L 15.4,14.93 a 0.493,0.493 0 0 1 -0.154,-0.373 l 0.017,-0.621 -4.82,3.393 -3.4,-1.593 -2.019,1.348 a 0.422,0.422 0 0 0 -0.036,0.027 l -0.052,0.045 a 0.355,0.355 0 0 0 -0.121,0.267 v 1.142 a 0.7,0.7 0 0 0 0.381,0.622 l 1.475,0.751 a 2.094,2.094 0 0 0 0.651,-0.055 l 0.993,-0.674 a 0.238,0.238 0 0 1 0.311,-0.023 l 0.462,0.224 a 0.165,0.165 0 0 1 0.1,0.245 l -0.455,0.75 a 0.484,0.484 0 0 0 -0.066,0.3 l 0.009,0.078 a 0.351,0.351 0 0 0 0.2,0.276 l 1.827,0.893 a 0.432,0.432 0 0 0 0.453,-0.045 l 5.639,-4.291 q -0.12,-0.069 -0.237,-0.144 z m -5.43,3.275 -1.618,-0.812 0.745,-1.325 1.668,0.817 z m 7.67,-6.012 a 0.455,0.455 0 0 0 -0.282,-0.441 l -0.475,-0.2 -0.006,0.23 a 0.79,0.79 0 0 1 -0.007,0.085 c 0.157,0.431 0.373,1.019 0.652,1.778 a 0.588,0.588 0 0 0 0.063,-0.238 z M 15.293,12.966 12.944,12 a 0.352,0.352 0 0 0 -0.33,0.032 l -0.311,0.208 2.97,1.291 v 0.175 z"/>

</svg>
